svg/emoji_u1f17f.svg

<svg enable-background="new 0 0 128 128" viewBox="0 0 128 128" xmlns="http://www.w3.org/2000/svg"><linearGradient id="a" x1="64" x2="64" y1="-.3333" y2="128.1" gradientUnits="userSpaceOnUse"><stop stop-color="#29B6F6" offset="0"/><stop stop-color="#169FE4" offset=".5369"/><stop stop-color="#0288D1" offset=".9954"/></linearGradient><path d="m116 124h-104c-4.42 0-8-3.58-8-8v-104c0-4.42 3.58-8 8-8h104c4.42 0 8 3.58 8 8v104c0 4.42-3.58 8-8 8z" fill="url(#a)"/><g opacity=".2"><path d="m116 7c2.76 0 5 2.24 5 5v104c0 2.76-2.24 5-5 5h-104c-2.76 0-5-2.24-5-5v-104c0-2.76 2.24-5 5-5h104m0-3h-104c-4.42 0-8 3.58-8 8v104c0 4.42 3.58 8 8 8h104c4.42 0 8-3.58 8-8v-104c0-4.42-3.58-8-8-8z" fill="#424242"/></g><g opacity=".2"><path d="m64.79 20c9.83 0 17.64 2.56 23.42 7.68s8.67 11.9 8.67 20.33c0 8.63-2.83 15.35-8.49 20.15s-13.59 7.2-23.78 7.2h-16.22c-1.09 0-1.98 0.89-1.98 1.98v28.68c0 1.09-0.89 1.98-1.98 1.98h-11.33c-1.09 0-1.98-0.89-1.98-1.98v-84.04c0-1.09 0.89-1.98 1.98-1.98h31.69m-16.4 43.03h16.4c5.44 0 9.59-1.28 12.45-3.84s4.29-6.26 4.29-11.09c0-4.75-1.45-8.55-4.35-11.39s-6.89-4.3-11.97-4.38h-16.82c-1.09 0-1.98 0.89-1.98 1.98v26.75c0 1.09 0.89 1.97 1.98 1.97m16.4-46.03h-31.69c-2.74 0-4.98 2.23-4.98 4.98v84.04c0 2.74 2.23 4.98 4.98 4.98h11.34c2.74 0 4.98-2.23 4.98-4.98v-27.66h15.18c10.88 0 19.53-2.66 25.72-7.91 6.34-5.38 9.55-12.92 9.55-22.44 0-9.28-3.26-16.88-9.68-22.57-6.32-5.6-14.87-8.44-25.4-8.44zm-15.38 18.33h15.8c4.27 0.07 7.52 1.22 9.87 3.53 2.32 2.27 3.45 5.3 3.45 9.25 0 3.98-1.08 6.87-3.29 8.85-2.28 2.04-5.8 3.07-10.45 3.07h-15.38v-24.7z" fill="#424242"/></g><path d="m46.41 77.34v28.68c0 1.09-0.89 1.98-1.98 1.98h-11.33c-1.09 0-1.98-0.89-1.98-1.98v-84.04c0-1.09 0.89-1.98 1.98-1.98h31.69c9.83 0 17.64 2.56 23.42 7.68s8.67 11.9 8.67 20.33c0 8.63-2.83 15.35-8.49 20.15s-13.59 7.2-23.78 7.2h-16.22c-1.09 0-1.98 0.89-1.98 1.98zm0-16.28c0 1.09 0.89 1.98 1.98 1.98h16.4c5.44 0 9.59-1.28 12.45-3.84s4.29-6.26 4.29-11.09c0-4.75-1.45-8.55-4.35-11.39s-6.89-4.3-11.97-4.38h-16.82c-1.09 0-1.98 0.89-1.98 1.98v26.74z" fill="#FAFAFA"/></svg>

<svg width="128" height="128" style="enable-background:new 0 0 128 128;" xmlns="http://www.w3.org/2000/svg" xmlns:xlink="http://www.w3.org/1999/xlink">
  <g>
    <linearGradient id="SVGID_1_" gradientUnits="userSpaceOnUse" x1="64" x2="64" y1="-0.3333" y2="128.0974">
      <stop offset="0" style="stop-color:#29B6F6"/>
      <stop offset="0.5369" style="stop-color:#169FE4"/>
      <stop offset="0.9954" style="stop-color:#0288D1"/>
    </linearGradient>
    <path d="M116,124H12c-4.42,0-8-3.58-8-8V12c0-4.42,3.58-8,8-8h104c4.42,0,8,3.58,8,8v104 C124,120.42,120.42,124,116,124z" style="fill:url(#SVGID_1_);"/>
    <g style="opacity:0.2;">
      <path d="M116,7c2.76,0,5,2.24,5,5v104c0,2.76-2.24,5-5,5H12c-2.76,0-5-2.24-5-5V12c0-2.76,2.24-5,5-5H116 M116,4H12c-4.42,0-8,3.58-8,8v104c0,4.42,3.58,8,8,8h104c4.42,0,8-3.58,8-8V12C124,7.58,120.42,4,116,4L116,4z" style="fill:#424242;"/>
    </g>
    <g style="opacity:0.2;">
      <path d="M64.79,20c9.83,0,17.64,2.56,23.42,7.68c5.78,5.12,8.67,11.9,8.67,20.33 c0,8.63-2.83,15.35-8.49,20.15c-5.66,4.8-13.59,7.2-23.78,7.2H48.39c-1.09,0-1.98,0.89-1.98,1.98v28.68 c0,1.09-0.89,1.98-1.98,1.98H33.1c-1.09,0-1.98-0.89-1.98-1.98V21.98c0-1.09,0.89-1.98,1.98-1.98H64.79 M48.39,63.03h16.4 c5.44,0,9.59-1.28,12.45-3.84c2.86-2.56,4.29-6.26,4.29-11.09c0-4.75-1.45-8.55-4.35-11.39c-2.9-2.84-6.89-4.3-11.97-4.38H48.39 c-1.09,0-1.98,0.89-1.98,1.98v26.75C46.41,62.15,47.3,63.03,48.39,63.03 M64.79,17H33.1c-2.74,0-4.98,2.23-4.98,4.98v84.04 c0,2.74,2.23,4.98,4.98,4.98h11.34c2.74,0,4.98-2.23,4.98-4.98V78.36H64.6c10.88,0,19.53-2.66,25.72-7.91 c6.34-5.38,9.55-12.92,9.55-22.44c0-9.28-3.26-16.88-9.68-22.57C83.87,19.84,75.32,17,64.79,17L64.79,17z M49.41,35.33h15.8 c4.27,0.07,7.52,1.22,9.87,3.53c2.32,2.27,3.45,5.3,3.45,9.25c0,3.98-1.08,6.87-3.29,8.85c-2.28,2.04-5.8,3.07-10.45,3.07H49.41 V35.33L49.41,35.33z" style="fill:#424242;"/>
    </g>
    <path d="M46.41,77.34v28.68c0,1.09-0.89,1.98-1.98,1.98H33.1c-1.09,0-1.98-0.89-1.98-1.98V21.98 c0-1.09,0.89-1.98,1.98-1.98h31.69c9.83,0,17.64,2.56,23.42,7.68c5.78,5.12,8.67,11.9,8.67,20.33c0,8.63-2.83,15.35-8.49,20.15 c-5.66,4.8-13.59,7.2-23.78,7.2H48.39C47.3,75.36,46.41,76.25,46.41,77.34z M46.41,61.06c0,1.09,0.89,1.98,1.98,1.98h16.4 c5.44,0,9.59-1.28,12.45-3.84c2.86-2.56,4.29-6.26,4.29-11.09c0-4.75-1.45-8.55-4.35-11.39s-6.89-4.3-11.97-4.38H48.39 c-1.09,0-1.98,0.89-1.98,1.98V61.06z" style="fill:#FAFAFA;"/>
  </g>
</svg>
